X:1
T:Title
L:1/8
Q:1/4=90
M:4/4
K:D
V:1 treble nm="Church Organ, Staff"
V:1
 F2 F>F F2 F2 | B4 A2 F2 | E2 F2 A2 GF | E6 z F- | FF- F/F/B- B/ z/ d2 c- | c3 A- A/ z/ F2 E- | %6
w: By~C.~Simper * * * *||||||
 E2 A^G- G/ z/ A BA- | A4- A/ z/ A2 c- | c2 de- e/ z/ c2 d- | d3 A- A/ z/ A2 B- | %10
w: ||||
 B2 AG- G/ z/ A2 F- | F6 z F- | FF- F/F/G- G/ z/ A2 B- | B3 d- d2- d/ z/ c- | cc- c/B/A Bcde- | %15
w: |||||
 e6 z d- | dd- d/d/d- d3/2 z/ cB- | B d2 A- A2- A/ z/ F- | FA- A/A/G- G/ z/ F2 E- | %19
w: ||||
 E E2 E- E2- E/ z/ F- | FA- A/A/d- d3/2 z/ de- | e2 dc- c2- c/ z/ d- | dc- c/B/A- A3/2 z/ GF- | %23
w: ||||
 F E2 D- D2- D/ z/ z |] %24
w: |

